X:1
T:Title
%%score 1 2 3
L:1/8
Q:1/4=120
M:4/4
K:G
V:1 treble nm="Grand Piano"
V:2 bass nm="Grand Piano, Melody"
V:3 bass nm="Grand Piano"
V:1
 B4 B2 B2 | e2 dc B2 B2 | d2 d2 e2 e2 | d2 B2 d2 e2 | [Be]8 | B4 B2 B2 | e2 dc B2 B2 | %7
 d2 d2 e2 e2 | d2 B2 d2 e2 | [Be]8 | B4 A2 A2 | B2 B2 A2 A2 | B4 B4 | e2 B2 B2 de | d2 e2 e4 | %15
 B4 B2 B2 | e2 dc B2 B2 | d2 d2 e2 e2 | d2 B2 d2 e2 | [Be]8 |] %20
V:2
 B,4 G,2 E,2 | E,2 D,E, G,2 G,2 | A,2 G,A, B,2 B,2 | D2 B,A, G,2 E,2 | E,8 | B,4 G,2 E,2 | %6
 E,2 D,E, G,2 G,2 | A,2 G,A, B,2 B,2 | D2 B,A, G,2 E,2 | E,8 | B,4[K:treble] D2 D2 | D2 B,2 D2 DE | %12
 D4 B,4 | B,2 E2 E2 FE | D2[K:bass] B,2 B,4 | B,4 G,2 E,2 | E,2 D,E, G,2 G,2 | A,2 G,A, B,2 B,2 | %18
 D2 B,A, G,2 E,2 | E,8 |] %20
V:3
 E,4 E,2 B,,2 | E,2 D,E, G,2 E,2 | D,2 G,F, E,2 E,2 | D,2 E,2 B,,2 B,,2 | E,8 | E,4 E,2 B,,2 | %6
 E,2 D,E, G,2 E,2 | D,2 G,F, E,2 E,2 | D,2 E,2 B,,2 B,,2 | E,8 | E,4 D,2 D,2 | G,2 G,2 D,2 D,2 | %12
 G,4 G,4 | E,2 G,2 G,2 D,2 | B,,2 B,,2 E,4 | E,4 E,2 B,,2 | E,2 D,E, G,2 E,2 | D,2 G,F, E,2 E,2 | %18
 D,2 E,2 B,,2 B,,2 | E,8 |] %20

